build/system/TuneOutline.svg

<svg xmlns="http://www.w3.org/2000/svg" fill="none" viewBox="0 0 24 24" focusable="false"><path d="M0 0H24V24H0z"/><path fill="#74767B" fill-rule="evenodd" d="M12.65 6.07061L12.65 3.63511C12.65 3.27612 12.359 2.98511 12 2.98511C11.641 2.98511 11.35 3.27612 11.35 3.63511L11.35 6.07061C10.0056 6.36757 9 7.56634 9 9C9 10.6569 10.3431 12 12 12C13.6569 12 15 10.6569 15 9C15 7.56634 13.9944 6.36757 12.65 6.07061ZM6 10.1721C6.35898 10.1721 6.65 9.88105 6.65 9.52206L6.65 3.63513C6.65 3.27614 6.35899 2.98512 6 2.98512C5.64102 2.98512 5.35 3.27614 5.35 3.63513L5.35 9.52206C5.35 9.88105 5.64102 10.1721 6 10.1721ZM18 2.98514C18.359 2.98514 18.65 3.27615 18.65 3.63514L18.65 9.52495C18.65 9.88394 18.359 10.175 18 10.175C17.641 10.175 17.35 9.88394 17.35 9.52495L17.35 3.63514C17.35 3.27615 17.641 2.98514 18 2.98514ZM12 7.3C12.9389 7.3 13.7 8.06112 13.7 9C13.7 9.93888 12.9389 10.7 12 10.7C11.0611 10.7 10.3 9.93888 10.3 9C10.3 8.06112 11.0611 7.3 12 7.3ZM6.65 20.362C6.65 20.721 6.35898 21.012 6 21.012C5.64102 21.012 5.35 20.721 5.35 20.362L5.35 17.9265C4.00564 17.6296 3 16.4308 3 14.9971C3 13.3403 4.34315 11.9971 6 11.9971C7.65685 11.9971 9 13.3403 9 14.9971C9 16.4308 7.99436 17.6296 6.65 17.9265L6.65 20.362ZM18.65 17.9294C19.9944 17.6324 21 16.4337 21 15C21 13.3431 19.6569 12 18 12C16.3431 12 15 13.3431 15 15C15 16.4337 16.0056 17.6324 17.35 17.9294L17.35 20.362C17.35 20.721 17.641 21.012 18 21.012C18.359 21.012 18.65 20.721 18.65 20.362L18.65 17.9294ZM6 13.2971C6.93888 13.2971 7.7 14.0582 7.7 14.9971C7.7 15.936 6.93888 16.6971 6 16.6971C5.06112 16.6971 4.3 15.936 4.3 14.9971C4.3 14.0582 5.06112 13.2971 6 13.2971ZM19.7 15C19.7 15.9389 18.9389 16.7 18 16.7C17.0611 16.7 16.3 15.9389 16.3 15C16.3 14.0611 17.0611 13.3 18 13.3C18.9389 13.3 19.7 14.0611 19.7 15ZM12 21.012C12.359 21.012 12.65 20.721 12.65 20.362L12.65 14.4971C12.65 14.1381 12.359 13.8471 12 13.8471C11.641 13.8471 11.35 14.1381 11.35 14.4971L11.35 20.362C11.35 20.721 11.641 21.012 12 21.012Z"/></svg>

<svg xmlns="http://www.w3.org/2000/svg" fill="none" viewBox="0 0 24 24" focusable="false"><path fill="#74767B" fill-rule="evenodd" d="M12.64 6.07V3.63c0-.36-.29-.65-.64-.65-.36 0-.65.29-.65.65v2.44A2.985 2.985 0 0 0 9 9c0 1.65 1.34 3 3 3 1.65 0 3-1.35 3-3 0-1.44-1.01-2.64-2.36-2.93M6 10.17c.35 0 .64-.29.64-.65V3.63c0-.36-.29-.65-.64-.65-.36 0-.65.29-.65.65v5.89c0 .36.29.65.65.65m12-7.19c.35 0 .64.29.64.65v5.89c0 .36-.29.65-.64.65-.36 0-.65-.29-.65-.65V3.63c0-.36.29-.65.65-.65M12 7.3c.93 0 1.7.76 1.7 1.7 0 .93-.77 1.7-1.7 1.7-.94 0-1.71-.77-1.71-1.7 0-.94.77-1.7 1.71-1.7M6.64 20.36c0 .36-.29.65-.64.65-.36 0-.65-.29-.65-.65v-2.44A2.99 2.99 0 0 1 3 14.99c0-1.65 1.34-3 3-3 1.65 0 3 1.35 3 3 0 1.44-1.01 2.63-2.36 2.93zm12-2.44A2.99 2.99 0 0 0 21 15c0-1.66-1.35-3-3-3-1.66 0-3 1.34-3 3 0 1.43 1 2.63 2.35 2.92v2.44c0 .36.29.65.65.65.35 0 .64-.29.64-.65zM6 13.29c.93 0 1.7.76 1.7 1.7a1.705 1.705 0 0 1-3.41 0c0-.94.77-1.7 1.71-1.7M19.7 15c0 .93-.77 1.7-1.7 1.7-.94 0-1.71-.77-1.71-1.7a1.705 1.705 0 0 1 3.41 0M12 21.01c.35 0 .64-.29.64-.65v-5.87c0-.36-.29-.65-.64-.65-.36 0-.65.29-.65.65v5.87c0 .36.29.65.65.65"/></svg>
